!!!COM: Bach, Johann Sebastian
!!!OPR: Joh. Seb. Bachs vierstimmige Choralgesänge
!!!XEN: Four-part Chorales
!!!OTL: Chorale 128. Meines Lebens letzte Zeit
!!!SCT: BWV 381
!!!SCA: Thematisch-systematisches Verzeichnis der musikalischen Werke Johann Sebastian Bach: Bach-Werke-Verzeichnis (Schmieder)
!!!YOR: Bach Gesellschaft Edition xxxix
!!!ENC: Steven Rasmussen
!!!CDT: 1685/3//-1750/7/28/
!!!OCY: Deutschland
!!!YEC: Copyright (c) 1994, 2000 Center for Computer Assisted Research in the Humanities
!!!YEM: Rights to all derivative editions reserved
!!!YEN: United States of America
**kern	**kern	**kern	**kern	**silbe
*I:[BASSO]	*I:[TENORE]	*I:[ALTO]	*I:[SOPRANO]	*I:[SOPRANO]
*clefF4	*clefGv2	*clefG2	*clefG2	*
*k[f#]	*k[f#]	*k[f#]	*k[f#]	*
*e:	*e:	*e:	*e:	*
*M4/4	*M4/4	*M4/4	*M4/4	*
=1-	=1-	=1-	=1-	=1-
4EE	4e	4g	4b	Mei-
4E	4e	4g	4b	-nes
8EL	4A	4f#	4cc	Le-
8D#J	.	.	.	.
8EL	4G	8gL	4b	-bens
8GJ	.	8f#J	.	.
=2	=2	=2	=2	=2
4C	4G	8eL	4b	letz-
.	.	8d#J	.	.
4C	8F#L	4e	4a	-te
.	8EJ	.	.	.
2BB;	2F#;	2d#;	2b;	Zeit
=3	=3	=3	=3	=3
4GG	8BL	8gL	4dd	ist
.	8cJ	8aJ	.	.
4G	4d	8bL	4dd	nun-
.	.	8aJ	.	.
8GL	4d	4b	4ee	-meh-
8F#J	.	.	.	.
8GL	4c	4e	4ee	-ro
8cJ	.	.	.	.
=4	=4	=4	=4	=4
8F#L	4d	8dL	4a	an-
8EJ	.	8gJ	.	.
4D	4d	4f#	8ddL	-ge-
.	.	.	8ccJ	.
4G	4d	4g	4b	-kom-
4GG;	4d;	4g;	4b;	-men,
=5	=5	=5	=5	=5
8cL	4c	4e	4.g	da
8BJ	.	.	.	.
4c	4c	4e	.	.
.	.	.	8a	der
4D#	4B	4f#	4b	schnÃ¶-
4E	4B	4e	8aL	-den
.	.	.	8gJ	.
=6	=6	=6	=6	=6
4AA	4c	4e	4.f#	Ei-
4BB	8.BL	4d#	.	.
.	.	.	8e	-tel-
.	16AJk	.	.	.
2EE;	2G;	2B;	2e;	-keit
=7	=7	=7	=7	=7
8EL	4e	4g	4.b	mei-
8F#J	.	.	.	.
4G	4d	4g	.	.
.	.	.	8cc	-ne
8GL	4d	4a	4dd	See-
8F#J	.	.	.	.
8GL	4d	4g	4b	-le
8BJ	.	.	.	.
=8	=8	=8	=8	=8
8EL	8cL	8gL	4cc	wird
8DJ	8dJ	8f#J	.	.
4C	4e	4g	8bL	ent-
.	.	.	8aJ	.
4D	8.dL	8gL	4a	-nom-
.	.	8f#J	.	.
.	16cJk	.	.	.
4GG;	4B;	4d;	4g;	-men;
=9	=9	=9	=9	=9
8GL	4d	8gL	4b	wer
8F#J	.	8aJ	.	.
8EL	8gL	4b	4b	kann
8DJ	8f#J	.	.	.
4C	8eL	4b	4ee	wi-
.	8dJ	.	.	.
4C#	4e	8aL	4ee	-der-
.	.	8gJ	.	.
=10	=10	=10	=10	=10
4D	4d	8gL	4a	-stre-
.	.	16f#L	.	.
.	.	16eJJ	.	.
4D;	4d;	4f#;	4a;	-ben,
4G	4d	4g	4b	dass
8F#L	4e	4g	4cc	uns
8EJ	.	.	.	.
=11	=11	=11	=11	=11
8F#L	4A	8aL	4dd	Men-
8EJ	.	8gJ	.	.
8F#L	8dL	4a	4dd	-schen
8BJ	8f#J	.	.	.
8EL	8eL	(8g	4cc	Gott
8F#J	8dJ	4a)	.	.
4G	4d	.	4b	das
.	.	8g	.	.
=12	=12	=12	=12	=12
4D	4d	8gL	4a	Le-
.	.	16f#L	.	.
.	.	16eJJ	.	.
4D;	4d;	4f#;	4a;	-ben
8GL	4d	4g	4.b	auf
8F#J	.	.	.	.
4E	4e	4g	.	.
.	.	.	8cc	ein
=13	=13	=13	=13	=13
8EL	4B	8g#L	4dd	zeit-
8DJ	.	8f#J	.	.
8EL	4e	8g#L	4b	-lich
8G#J	.	8bJ	.	.
4AA	4e	8bL	4cc	Wie-
.	.	8aJ	.	.
8BBL	4d	4gn	4b	-der-
8CJ	.	.	.	.
=14	=14	=14	=14	=14
4D	4d	8gL	4a	-neh-
.	.	8f#J	.	.
4D#	8BL	4f#	4b	-men
.	8AJ	.	.	.
8EL	4G	4e	4b	hat
8GJ	.	.	.	.
8CL	8AL	4e	8aL	ge-
8BBJ	8BJ	.	8gJ	.
=15	=15	=15	=15	=15
4AA	4c	4e	2f#	-ge-
4BB	8BL	4d#	.	.
.	8AJ	.	.	.
2E;	2G#;	2B;	2e;	-ben.
==|!	==|!	==|!	==|!	==|!
*-	*-	*-	*-	*-
!!!RWG: Key is interpreted using the Humdrum key tool.
!!!URL-pdf: https://s9.imslp.org/files/imglnks/usimg/6/6b/IMSLP24489-PMLP09471-CCARH_Bach_Chorales.pdf#page=90 Musedata edition
!!!URL-pdf: https://s9.imslp.org/files/imglnks/usimg/7/7a/IMSLP04155-Bach_-_BGA_253-438.pdf#page=70 	Bach-Gesellschaft Ausgabe, Band 39 (pp.175-276) Leipzig: Breitkopf und Härtel, 1892. Plate B.W. XXXIX.
!!!END: 1994/07/18
!!!EMD: Converted from MuseData to Humdrum Dec 19, 2000, by Andreas Kornstaedt using muse2kern.
!!!EED: Craig Stuart Sapp
!!!EEV: 2024/03/31
!!!filter-keyboard: satb2gs
!!!title: @{OTL} (@{SCT})
